X:19
T:Last Farewell. WR1776.19, The
B:Wm.Randall CDs 1776
Z:vmp.Steve Mansfield 2015
M:2/4
L:1/8
W:Cast off 2 Cu. lead up to the top cast off
W:hands six round and back again
Q:2/4=60
K:Bb
BB2 B/d/ | ff2 g/a/ | bgge | eccA |
BB2B/d/ | ff2g/a/ | bgf=e | f2 F2 :|
|: ff2 d/f/ | ge2 d/e/ | ec2 d/e/ | f/e/d/c/ B/A/G/F/ |
Eg2 f/e/ | df2 e/d/ | ecBA | B2 B,2 :|

